X:200 
T:Spring Field Jig*, The 
F:file ID: cre.5/200spring_f
B:CRE5.031 (gan ainm)
M:6/8
Q:160
R:jig
K:G
A|BDD cDD|BDD AFD|GBd gdB|cBc AFD|
BDD cDD|BDD AFD|GBd gdB|cAF G2:|
D|GBd gfg|ece dc/B/G|cBA BAG|DFA cBA|
GBd gfg|ece dc/B/G|cBA BAG|DFA G2:|

%%%

